X:2
T:Larid\'e 2
G:Kazimodal
R:Larid\'e
C:Traditionnel, arrangement http://kazimodal.trad.org
Q:C2=140
P:(BC)4BD
M:4/4
K:Am
P:B
%%MIDI program 109
%%MIDI gchord fcffcfcz
%%MIDI chordprog 42
%%MIDI chordvol 60
%%MIDI bassprog 34
%%MIDI bassvol 127
|: "Am"cB AB "G"cd "C"e2 | de "Dm"fe d2 "Em"B2 :|
P:C
|: "Em"Be "Am"ed dc "F"A2 | Bc "G"BA GA "Em"B2 |
"Em"Be "Am"ed dc "F"A2 | Bc "G"BA "Em"BG "Am"A2 :|
P:D
|: "Em"Be "Am"ed dc "F"A2 | Bc "G"BA GA "Em"B2 |
"Em"Be "Am"ed dc "F"A2 | Bc "G"BA "Em"BG "Am"AE :|
